exported-svg/eye.svg

<svg height="24" viewBox="0 0 24 24" width="24" xmlns="http://www.w3.org/2000/svg"><path d="m.0527864 12.7236068c-.07038187-.1407637-.07038187-.3064499 0-.4472136.03479101-.069582.10059205-.1939304.19697271-.3652738.15866034-.2820629.34699064-.5954445.5645962-.9323821.62081681-.9612648 1.3535516-1.92222841 2.19587609-2.82070786 2.42979747-2.59178397 5.26861738-4.15802944 8.4897686-4.15802944 3.2211512 0 6.0599711 1.56624547 8.4897686 4.15802944.8423245.89847945 1.5750593 1.85944306 2.1958761 2.82070786.2176055.3369376.4059358.6503192.5645962.9323821.0963807.1713434.1621817.2956918.1969727.3652738.0703819.1407637.0703819.3064499 0 .4472136-.034791.069582-.100592.1939304-.1969727.3652738-.1586604.2820629-.3469907.5954445-.5645962.9323821-.6208168.9612648-1.3535516 1.9222284-2.1958761 2.8207079-2.4297975 2.5917839-5.2686174 4.1580294-8.4897686 4.1580294-3.22115122 0-6.05997113-1.5662455-8.4897686-4.1580294-.84232449-.8984795-1.57505928-1.8594431-2.19587609-2.8207079-.21760556-.3369376-.40593586-.6503192-.5645962-.9323821-.09638066-.1713434-.1621817-.2956918-.19697271-.3652738zm1.06854824-.1249874c.14895685.2648121.32683748.5608055.53306005.8801179.59012069.9137352 1.2870734 1.8277716 2.08537391 2.6792921 2.25770253 2.4082161 4.85638262 3.8419706 7.7602314 3.8419706 2.9038488 0 5.5025289-1.4337545 7.7602314-3.8419706.7983005-.8515205 1.4952532-1.7655569 2.0853739-2.6792921.2062226-.3193124.3841032-.6153058.5330601-.8801179.0198388-.035269.0381611-.0681719.0549606-.0986194-.0167995-.0304475-.0351218-.0633504-.0549606-.0986194-.1489569-.2648121-.3268375-.5608055-.5330601-.8801179-.5901207-.9137352-1.2870734-1.82777159-2.0853739-2.67929214-2.2577025-2.40821603-4.8563826-3.84197056-7.7602314-3.84197056-2.90384878 0-5.50252887 1.43375453-7.7602314 3.84197056-.79830051.85152055-1.49525322 1.76555694-2.08537391 2.67929214-.20622257.3193124-.3841032.6153058-.53306005.8801179-.0198388.035269-.0381611.0681719-.05496068.0986194.01679958.0304475.03512188.0633504.05496068.0986194zm10.37866536 3.4013806c-1.93299662 0-3.5-1.5670034-3.5-3.5s1.56700338-3.5 3.5-3.5c1.9329966 0 3.5 1.5670034 3.5 3.5s-1.5670034 3.5-3.5 3.5zm0-1c1.3807119 0 2.5-1.1192881 2.5-2.5s-1.1192881-2.5-2.5-2.5-2.5 1.1192881-2.5 2.5 1.1192881 2.5 2.5 2.5z"/></svg>

<?xml version="1.0" encoding="UTF-8"?>
<svg width="24px" height="24px" viewBox="0 0 24 24" version="1.1" xmlns="http://www.w3.org/2000/svg" xmlns:xlink="http://www.w3.org/1999/xlink">
    <!-- Generator: Sketch 55.2 (78181) - https://sketchapp.com -->
    <title>eye</title>
    <desc>Created with Sketch.</desc>
    <g id="eye" stroke="none" stroke-width="1" fill="none" fill-rule="evenodd">
        <path d="M0.0527864045,12.7236068 C-0.0175954682,12.5828431 -0.0175954682,12.4171569 0.0527864045,12.2763932 C0.0875774136,12.2068112 0.153378445,12.0824628 0.249759106,11.9111194 C0.408419452,11.6290565 0.596749754,11.3156749 0.814355311,10.9787373 C1.43517212,10.0174725 2.16790691,9.05650889 3.0102314,8.15802944 C5.44002887,5.56624547 8.27884878,4 11.5,4 C14.7211512,4 17.5599711,5.56624547 19.9897686,8.15802944 C20.8320931,9.05650889 21.5648279,10.0174725 22.1856447,10.9787373 C22.4032502,11.3156749 22.5915805,11.6290565 22.7502409,11.9111194 C22.8466216,12.0824628 22.9124226,12.2068112 22.9472136,12.2763932 C23.0175955,12.4171569 23.0175955,12.5828431 22.9472136,12.7236068 C22.9124226,12.7931888 22.8466216,12.9175372 22.7502409,13.0888806 C22.5915805,13.3709435 22.4032502,13.6843251 22.1856447,14.0212627 C21.5648279,14.9825275 20.8320931,15.9434911 19.9897686,16.8419706 C17.5599711,19.4337545 14.7211512,21 11.5,21 C8.27884878,21 5.44002887,19.4337545 3.0102314,16.8419706 C2.16790691,15.9434911 1.43517212,14.9825275 0.814355311,14.0212627 C0.596749754,13.6843251 0.408419452,13.3709435 0.249759106,13.0888806 C0.153378445,12.9175372 0.0875774136,12.7931888 0.0527864045,12.7236068 Z M1.12133464,12.5986194 C1.27029149,12.8634315 1.44817212,13.1594249 1.65439469,13.4787373 C2.24451538,14.3924725 2.94146809,15.3065089 3.7397686,16.1580294 C5.99747113,18.5662455 8.59615122,20 11.5,20 C14.4038488,20 17.0025289,18.5662455 19.2602314,16.1580294 C20.0585319,15.3065089 20.7554846,14.3924725 21.3456053,13.4787373 C21.5518279,13.1594249 21.7297085,12.8634315 21.8786654,12.5986194 C21.8985042,12.5633504 21.9168265,12.5304475 21.933626,12.5 C21.9168265,12.4695525 21.8985042,12.4366496 21.8786654,12.4013806 C21.7297085,12.1365685 21.5518279,11.8405751 21.3456053,11.5212627 C20.7554846,10.6075275 20.0585319,9.69349111 19.2602314,8.84197056 C17.0025289,6.43375453 14.4038488,5 11.5,5 C8.59615122,5 5.99747113,6.43375453 3.7397686,8.84197056 C2.94146809,9.69349111 2.24451538,10.6075275 1.65439469,11.5212627 C1.44817212,11.8405751 1.27029149,12.1365685 1.12133464,12.4013806 C1.10149584,12.4366496 1.08317354,12.4695525 1.06637396,12.5 C1.08317354,12.5304475 1.10149584,12.5633504 1.12133464,12.5986194 Z" id="Shape" fill="#000000" fill-rule="nonzero"></path>
        <path d="M11.5,16 C13.4329966,16 15,14.4329966 15,12.5 C15,10.5670034 13.4329966,9 11.5,9 C9.56700338,9 8,10.5670034 8,12.5 C8,14.4329966 9.56700338,16 11.5,16 Z M11.5,15 C10.1192881,15 9,13.8807119 9,12.5 C9,11.1192881 10.1192881,10 11.5,10 C12.8807119,10 14,11.1192881 14,12.5 C14,13.8807119 12.8807119,15 11.5,15 Z" id="Oval" fill="#000000" fill-rule="nonzero"></path>
    </g>
</svg>
